Newaita/actions/22/align-horizontal-right-out.svg

<svg height="22" viewBox="0 0 22 22" width="22" xmlns="http://www.w3.org/2000/svg"><g fill="#424242"><path d="m10.914062 20.183594c.253907 0 .457032-.203125.457032-.457032v-17.28125c0-.25-.203125-.453124-.457032-.453124-.25 0-.453124.203124-.453124.453124v17.28125c0 .253907.203124.457032.453124.457032zm0 0"/><path d="m1.820312 13.816406c0-1.007812.808594-1.820312 1.816407-1.820312h2.730469c1.007812 0 1.820312.8125 1.820312 1.820312v2.726563c0 1.007812-.8125 1.820312-1.820312 1.820312h-2.730469c-1.007813 0-1.816407-.8125-1.816407-1.820312zm1.816407.453125v1.820313c0 .25.203125.453125.457031.453125h1.820312c.25 0 .453126-.203125.453126-.453125v-1.820313c0-.25-.203126-.453125-.453126-.453125h-1.820312c-.253906 0-.457031.203125-.457031.453125zm0 0"/><path d="m1.820312 5.628906c0-1.007812.808594-1.820312 1.816407-1.820312h3.640625c1.007812 0 1.820312.8125 1.820312 1.820312v2.730469c0 1.007813-.8125 1.816406-1.820312 1.816406h-3.640625c-1.007813 0-1.816407-.808593-1.816407-1.816406zm1.816407.457032v1.816406c0 .253906.203125.457031.457031.457031h2.726562c.253907 0 .457032-.203125.457032-.457031v-1.816406c0-.253907-.203125-.457032-.457032-.457032h-2.726562c-.253906 0-.457031.203125-.457031.457032zm0 0"/><path d="m14.554688 18.363281c-1.007813 0-1.820313-.8125-1.820313-1.820312v-3.636719c0-1.007812.8125-1.820312 1.820313-1.820312h2.726562c1.007812 0 1.820312.8125 1.820312 1.820312v3.636719c0 1.007812-.8125 1.820312-1.820312 1.820312zm0 0"/></g></svg>

<svg xmlns="http://www.w3.org/2000/svg" xmlns:xlink="http://www.w3.org/1999/xlink" width="22px" height="22px" viewBox="0 0 22 22" version="1.1">
<g id="surface1">
     <defs>
  <style id="current-color-scheme" type="text/css">
   .ColorScheme-Text { color:#424242; } .ColorScheme-Highlight { color:#eeeeee; }
  </style>
 </defs>
<path style="fill:currentColor" class="ColorScheme-Text" d="M 10.914062 20.183594 C 11.167969 20.183594 11.371094 19.980469 11.371094 19.726562 L 11.371094 2.445312 C 11.371094 2.195312 11.167969 1.992188 10.914062 1.992188 C 10.664062 1.992188 10.460938 2.195312 10.460938 2.445312 L 10.460938 19.726562 C 10.460938 19.980469 10.664062 20.183594 10.914062 20.183594 Z M 10.914062 20.183594 "/>
     <defs>
  <style id="current-color-scheme" type="text/css">
   .ColorScheme-Text { color:#424242; } .ColorScheme-Highlight { color:#eeeeee; }
  </style>
 </defs>
<path style="fill:currentColor" class="ColorScheme-Text" d="M 1.820312 13.816406 C 1.820312 12.808594 2.628906 11.996094 3.636719 11.996094 L 6.367188 11.996094 C 7.375 11.996094 8.1875 12.808594 8.1875 13.816406 L 8.1875 16.542969 C 8.1875 17.550781 7.375 18.363281 6.367188 18.363281 L 3.636719 18.363281 C 2.628906 18.363281 1.820312 17.550781 1.820312 16.542969 Z M 3.636719 14.269531 L 3.636719 16.089844 C 3.636719 16.339844 3.839844 16.542969 4.09375 16.542969 L 5.914062 16.542969 C 6.164062 16.542969 6.367188 16.339844 6.367188 16.089844 L 6.367188 14.269531 C 6.367188 14.019531 6.164062 13.816406 5.914062 13.816406 L 4.09375 13.816406 C 3.839844 13.816406 3.636719 14.019531 3.636719 14.269531 Z M 3.636719 14.269531 "/>
     <defs>
  <style id="current-color-scheme" type="text/css">
   .ColorScheme-Text { color:#424242; } .ColorScheme-Highlight { color:#eeeeee; }
  </style>
 </defs>
<path style="fill:currentColor" class="ColorScheme-Text" d="M 1.820312 5.628906 C 1.820312 4.621094 2.628906 3.808594 3.636719 3.808594 L 7.277344 3.808594 C 8.285156 3.808594 9.097656 4.621094 9.097656 5.628906 L 9.097656 8.359375 C 9.097656 9.367188 8.285156 10.175781 7.277344 10.175781 L 3.636719 10.175781 C 2.628906 10.175781 1.820312 9.367188 1.820312 8.359375 Z M 3.636719 6.085938 L 3.636719 7.902344 C 3.636719 8.15625 3.839844 8.359375 4.09375 8.359375 L 6.820312 8.359375 C 7.074219 8.359375 7.277344 8.15625 7.277344 7.902344 L 7.277344 6.085938 C 7.277344 5.832031 7.074219 5.628906 6.820312 5.628906 L 4.09375 5.628906 C 3.839844 5.628906 3.636719 5.832031 3.636719 6.085938 Z M 3.636719 6.085938 "/>
     <defs>
  <style id="current-color-scheme" type="text/css">
   .ColorScheme-Text { color:#424242; } .ColorScheme-Highlight { color:#eeeeee; }
  </style>
 </defs>
<path style="fill:currentColor" class="ColorScheme-Text" d="M 14.554688 18.363281 C 13.546875 18.363281 12.734375 17.550781 12.734375 16.542969 L 12.734375 12.90625 C 12.734375 11.898438 13.546875 11.085938 14.554688 11.085938 L 17.28125 11.085938 C 18.289062 11.085938 19.101562 11.898438 19.101562 12.90625 L 19.101562 16.542969 C 19.101562 17.550781 18.289062 18.363281 17.28125 18.363281 Z M 14.554688 18.363281 "/>
</g>
</svg>
